src/actions/22/svn-update.svg

<svg xmlns="http://www.w3.org/2000/svg" viewBox="0 0 22 22">
  <defs id="defs3051">
    <style type="text/css" id="current-color-scheme">
      .ColorScheme-Text {
        color:#363636;
      }
      .ColorScheme-Highlight {
        color:#3daee9;
      }
      </style>
  </defs>
 <path 
     style="fill:currentColor;fill-opacity:1;stroke:none" 
     d="M 10.5 3 C 9.84576 3 9.2977969 3.41808 9.0917969 4 L 5 4 L 4 4 L 4 5 L 4 16.091797 C 3.41808 16.297797 3 16.84576 3 17.5 C 3 18.331 3.669 19 4.5 19 C 5.331 19 6 18.331 6 17.5 C 6 16.84576 5.58192 16.297797 5 16.091797 L 5 5 L 9.0917969 5 C 9.2421369 5.4247 9.5753 5.7578631 10 5.9082031 L 10 12 L 10 13 L 11 13 L 11.091797 13 C 11.297797 13.58192 11.84576 14 12.5 14 C 13.331 14 14 13.331 14 12.5 C 14 11.669 13.331 11 12.5 11 C 11.84576 11 11.297797 11.41808 11.091797 12 L 11 12 L 11 5.9082031 C 11.58192 5.7022031 12 5.15424 12 4.5 C 12 3.669 11.331 3 10.5 3 z M 10.5 4 C 10.777 4 11 4.223 11 4.5 C 11 4.777 10.777 5 10.5 5 C 10.223 5 10 4.777 10 4.5 C 10 4.223 10.223 4 10.5 4 z M 12.5 12 C 12.777 12 13 12.223 13 12.5 C 13 12.777 12.777 13 12.5 13 C 12.223 13 12 12.777 12 12.5 C 12 12.223 12.223 12 12.5 12 z M 16 13 L 16 17.292969 L 13.707031 15 L 13 15.707031 L 16.292969 19 L 16.5 19.207031 L 16.707031 19 L 20 15.707031 L 19.292969 15 L 17 17.292969 L 17 13 L 16 13 z M 4.5 17 C 4.777 17 5 17.223 5 17.5 C 5 17.777 4.777 18 4.5 18 C 4.223 18 4 17.777 4 17.5 C 4 17.223 4.223 17 4.5 17 z "
     class="ColorScheme-Text"
     />
</svg>

<svg xmlns="http://www.w3.org/2000/svg" viewBox="0 0 22 22">
    <defs id="defs3051">
        <style id="current-color-scheme" type="text/css">
            .ColorScheme-Highlight{color:#a0b6cb}
        </style>
    </defs>
    <path d="M10.5 3c-.654 0-1.202.418-1.408 1H4v12.092A1.497 1.497 0 0 0 4.5 19a1.497 1.497 0 0 0 .5-2.908V5h4.092c.15.425.483.758.908.908V13h1.092A1.497 1.497 0 0 0 14 12.5a1.497 1.497 0 0 0-2.908-.5H11V5.908A1.497 1.497 0 0 0 10.5 3zm0 1a.499.499 0 1 1 0 1 .499.499 0 1 1 0-1zm2 8a.499.499 0 1 1 0 1 .499.499 0 1 1 0-1zm3.5 1v4.293L13.707 15l-.707.707L16.293 19l.207.207.207-.207L20 15.707 19.293 15 17 17.293V13h-1zM4.5 17a.499.499 0 1 1 0 1 .499.499 0 1 1 0-1z" style="fill:currentColor;fill-opacity:1;stroke:none;color:#050505;opacity:.7"/>
</svg>
